X:294
T: ES WOLLT EIN JAEGER JAGEN
N: E1437
O: Europa, Mitteleuropa, Deutschland
R: Staende -, Jaeger - Lied, Liebe
M: 3/8
L: 1/16
K: F
 | F2F2A2 | c4f2 | c2A2z2
c2c2c2 | d3cB2 | A4z2
A2A2A2 | G4c2 | A2F2z2
A2A2A2 | c3BG2 | F4z2

